X:792
T:Watching the Wheat
T:Bugeilio'r Gwenith Gwyn
C:Traditional Welsh
L:1/8
M:3/4
%%MIDI beat 100 95 80
%%MIDI gchord GIhgih
%%MIDI program 73
%%MIDI chordprog 46
%%MIDI chordvol 50
S:Colin Hume's website,  colinhume.com  - chords can also be printed below the stave.
Q:1/4=98
H:For the dance "White Wheat" by Hazel Moir
K:C
P:A
|: "C"CEG3E | "F"FF "C"E3F | "C"GEC3E | "Em"GG3zE | "F"FFA3F | "C"EEG3E | "Dm"ED "G7"D3C/B,/ | "C"CC3z2 :|
P:B
|: "Am"CCc3A | "F"FFF3E | "D7"DDd3B | "G"GG3 "C7"zE | "F"FFA3F | "C"EEG3E | "Dm"ED "G7"D3C/B,/ | "C"CC3z2 :|
